assets/fc/fc-kindle.svg

<svg xmlns="http://www.w3.org/2000/svg" width="100%" height="100%" viewBox="0 0 48 48"><path fill="#37474F" d="M8 41V7c0-2.2 1.8-4 4-4h24c2.2 0 4 1.8 4 4v34c0 2.2-1.8 4-4 4H12c-2.2 0-4-1.8-4-4z"/><path fill="#eee" d="M35 6H13c-.6 0-1 .4-1 1v29c0 .6.4 1 1 1h22c.6 0 1-.4 1-1V7c0-.6-.4-1-1-1z"/><path fill="#546E7A" d="M20 40h8v2h-8z"/><g fill="#A1A1A1"><path d="M16 11h16v3H16zM16 18h16v2H16zM16 22h12v2H16zM16 26h16v2H16zM16 30h12v2H16z"/></g></svg>

<svg xmlns="http://www.w3.org/2000/svg" width="100%" height="100%" viewBox="0 0 48 48"><path fill="#37474F" d="M8,41V7c0-2.2,1.8-4,4-4h24c2.2,0,4,1.8,4,4v34c0,2.2-1.8,4-4,4H12C9.8,45,8,43.2,8,41z"/><path fill="#eee" d="M35,6H13c-0.6,0-1,0.4-1,1v29c0,0.6,0.4,1,1,1h22c0.6,0,1-0.4,1-1V7C36,6.4,35.6,6,35,6z"/><path fill="#546E7A" d="M20 40H28V42H20z"/><g fill="#A1A1A1"><path d="M16 11H32V14H16zM16 18H32V20H16zM16 22H28V24H16zM16 26H32V28H16zM16 30H28V32H16z"/></g></svg>
